X:12771
T:Paloma, Blanca Paloma
R:Xiraldilla
C:Tradicional
S:Msica Tradicional Asturiana, (C) Tello & Tito. Asturies, 2001.
S:http://pagina.de/MusTradAst <telloytito@asturies.org>
N:Cancin usada en bailes de corro.
A:Asturies
Z:DyC en Teberga
M:2/4
L:1/8
Q:1/4=92
K:Fm
C
|: F2 F2-|FB BA|GG EF|GG AB|A-G F2-|F2 z C|
|F2 F2-|FB BA|GA GF|E{F}E ED|C2 C2-|[1 C2 z C :|[2 C2 z2|
